X: 3
T: Salmon Tails Up The Water
R: polka
M: 2/4
L: 1/8
K: Gmaj
|: GE DE | G2 G>A | Bd AB/A/ | GE D2 |
GE DE | G2 G>A | Bd AB/A/ | G2- G2 :|
|: Bd d2 | ce e>g | dB/4c/4B/ AB/A/ | GE D2 |
[1 Bd d2 | ce e>f | gf ed | e2 g2 :|
[2 GE DE | G2 G>A | Bd AB/A/ | G2- G2 |]


Tune 2903	Setting 16092

